X: 1
T: The Gladstone
R: reel
M: 4/4
L: 1/8
K: Amaj
|: cAdB efga | A/A/AcA BGEd | cAdB efga | ecdB A2A2 :|
| afba geag | fdgf ecfe | dBed cAdc | BAGA Bcde |
afba geag | fdgf ecfe | dBed ceaf | ecdB A2z2 |


Tune 1744	Setting 15178

